X: 66
T:Clear The Way
% Nottingham Music Database
S:via PR
M:4/4
L:1/4
K:A
z/2|:"A"z/2A/2-A/2G/2 AA|"Bm"B/2c/2B/2A/2 "E"GE|"A"z/2A/2-A/2G/2 AA|
"Bm" [c2e2]"E"[B2e2]|"A"z/2A/2-A/2G/2 AA|"Bm"B/2c/2B/2A/2 "E"GE|\
"A"e/2f/2e/2d/2 "Bm"c/2B/2A/2G/2|"E"F/2E/2F/2G/2 "A"A2::
"A"z/2[c/2-a/2-][c/2a/2]=c/2 [c2a2]|"D"z/2[=c/2-a/2-][=c/2a/2]B/2 [c2a2]|\
"A"z/2[c/2-a/2-][c/2a/2]=c/2 [ca][ca]|"Bm"[c2e2]"E"[B2e2]|
"A"z/2[c/2-a/2-][c/2a/2]=c/2 [c2a2]|"D"z/2[=c/2-a/2-][=c/2a/2]B/2 [c2a2]|\
 [1"A"e/2f/2e/2d/2 "Bm"c/2B/2A/2G/2|"E"F/2E/2F/2G/2 "A"A2:|
[2"A"e/2f/2e/2d/2 "Bm"c/2B/2A/2G/2|"E"F/2G/2-G "A"Az||


